svg/300/rounded/screenshot_frame-fill.svg

<svg xmlns="http://www.w3.org/2000/svg" width="48" height="48" viewBox="0 -960 960 960"><path d="M242.511-687.307q-9.741 0-16.125-6.515-6.385-6.514-6.385-16.177v-92.307q0-23.529 17.082-40.611 17.082-17.082 40.611-17.082h92.307q9.663 0 16.177 6.567 6.515 6.567 6.515 16.307 0 9.741-6.515 16.126-6.514 6.384-16.177 6.384h-92.307q-4.616 0-8.463 3.846-3.846 3.847-3.846 8.463v92.307q0 9.663-6.567 16.177-6.566 6.515-16.307 6.515Zm35.183 587.306q-23.529 0-40.611-17.082-17.082-17.082-17.082-40.611v-92.307q0-9.663 6.567-16.177 6.567-6.515 16.307-6.515 9.741 0 16.126 6.515 6.384 6.514 6.384 16.177v92.307q0 4.616 3.846 8.463 3.847 3.846 8.463 3.846h92.307q9.663 0 16.177 6.567 6.515 6.566 6.515 16.307t-6.515 16.125q-6.514 6.385-16.177 6.385h-92.307Zm439.431-587.306q-9.741 0-16.126-6.515-6.384-6.514-6.384-16.177v-92.307q0-4.616-3.846-8.463-3.847-3.846-8.463-3.846h-92.307q-9.663 0-16.177-6.567-6.515-6.566-6.515-16.307t6.515-16.125q6.514-6.385 16.177-6.385h92.307q23.529 0 40.611 17.082 17.082 17.082 17.082 40.611v92.307q0 9.663-6.567 16.177-6.567 6.515-16.307 6.515ZM589.999-100.001q-9.663 0-16.177-6.567-6.515-6.567-6.515-16.307 0-9.741 6.515-16.126 6.514-6.384 16.177-6.384h92.307q4.616 0 8.463-3.846 3.846-3.847 3.846-8.463v-92.307q0-9.663 6.567-16.177 6.566-6.515 16.307-6.515t16.125 6.515q6.385 6.514 6.385 16.177v92.307q0 23.529-17.082 40.611-17.082 17.082-40.611 17.082h-92.307Z"/></svg>

<svg xmlns="http://www.w3.org/2000/svg" width="48" height="48" viewBox="0 -960 960 960"><path d="M242.51-687.31q-9.74 0-16.12-6.51Q220-700.34 220-710v-92.31q0-23.53 17.08-40.61T277.69-860H370q9.66 0 16.18 6.57 6.51 6.56 6.51 16.31 0 9.74-6.51 16.12-6.52 6.39-16.18 6.39h-92.31q-4.61 0-8.46 3.84-3.84 3.85-3.84 8.46V-710q0 9.66-6.57 16.18-6.57 6.51-16.31 6.51ZM277.69-100q-23.53 0-40.61-17.08T220-157.69V-250q0-9.66 6.57-16.18 6.56-6.51 16.31-6.51 9.74 0 16.12 6.51 6.39 6.52 6.39 16.18v92.31q0 4.61 3.84 8.46 3.85 3.84 8.46 3.84H370q9.66 0 16.18 6.57 6.51 6.57 6.51 16.31 0 9.74-6.51 16.12Q379.66-100 370-100h-92.31Zm439.43-587.31q-9.74 0-16.12-6.51-6.39-6.52-6.39-16.18v-92.31q0-4.61-3.84-8.46-3.85-3.84-8.46-3.84H590q-9.66 0-16.18-6.57-6.51-6.57-6.51-16.31 0-9.74 6.51-16.12Q580.34-860 590-860h92.31q23.53 0 40.61 17.08T740-802.31V-710q0 9.66-6.57 16.18-6.56 6.51-16.31 6.51ZM590-100q-9.66 0-16.18-6.57-6.51-6.56-6.51-16.31 0-9.74 6.51-16.12 6.52-6.39 16.18-6.39h92.31q4.61 0 8.46-3.84 3.84-3.85 3.84-8.46V-250q0-9.66 6.57-16.18 6.57-6.51 16.31-6.51 9.74 0 16.12 6.51Q740-259.66 740-250v92.31q0 23.53-17.08 40.61T682.31-100H590Z"/></svg>
